X:2898
T:Charming Phillis - a Minuet
M:3/4
L:1/4
K:D
d2e|f/2g/2a2|gfe|f/2g/2a2|gfe|f/2e/2d/2e/2 f/2g/2|agf|e3:|:a2b|g/2f/2 e2
|g2 a|f/2e/2 d2|Adf|Aeg|f/2e/2e>d|d3:|


